public/assets/images/why-choose/02.svg

<svg width="46" height="46" viewBox="0 0 46 46" fill="none" xmlns="http://www.w3.org/2000/svg">
<g clip-path="url(#clip0_118_6694)">
<path d="M25.0907 44.5147C25.4674 44.138 25.7249 43.6739 25.8455 43.1685C26.2675 43.3976 26.7355 43.5129 27.2037 43.5129C27.932 43.5129 28.6603 43.2357 29.2147 42.6812C29.6653 42.2306 29.9454 41.6551 30.0241 41.033C30.0078 41.1634 30.8907 41.1404 30.979 41.1395C31.606 41.133 32.32 40.9378 32.7537 40.4595C32.9954 40.193 33.1515 39.8634 33.2909 39.5354C33.3326 39.4373 33.6847 38.505 33.599 38.4885C33.7771 38.523 33.9598 38.5409 34.1453 38.5409C34.905 38.5409 35.6192 38.245 36.1563 37.7078C37.2651 36.599 37.2651 34.7947 36.1563 33.6859L35.9315 33.4611C36.6957 32.4772 37.0411 31.2077 36.8614 29.9626C36.7953 29.5045 36.9511 29.0358 37.2784 28.7085L38.6633 27.3236L39.5418 28.2021C39.8205 28.4808 40.191 28.6342 40.585 28.6342C40.9791 28.6342 41.3496 28.4808 41.6283 28.2021L45.3895 24.441C45.9647 23.8657 45.9647 22.9297 45.3894 22.3544L35.4786 12.4439C35.2 12.1652 34.8294 12.0117 34.4353 12.0117C34.0413 12.0117 33.6708 12.1652 33.3921 12.4439L29.6309 16.205C29.0558 16.7802 29.0557 17.7163 29.6309 18.2915L30.5094 19.17L29.7074 19.972C29.3477 20.3317 28.8365 20.4797 28.3401 20.3681L26.0801 19.8593C24.6918 19.5467 23.2749 19.7429 22.0561 20.3807C21.0415 20.0142 19.9551 19.9326 18.8896 20.1477L17.6504 20.3977C17.1646 20.4958 16.6656 20.3451 16.3153 19.9948L15.4906 19.1701L16.3691 18.2916C16.9443 17.7163 16.9443 16.7804 16.369 16.2052L12.6081 12.4439C12.3295 12.1652 11.9588 12.0117 11.5648 12.0117C11.1707 12.0117 10.8002 12.1652 10.5215 12.4439L0.610773 22.3545C0.0355039 22.9298 0.0355039 23.8659 0.610773 24.4411L4.37181 28.2021C4.65051 28.4808 5.02102 28.6342 5.41508 28.6342C5.80922 28.6342 6.17974 28.4808 6.45834 28.2021L7.33684 27.3236L8.72178 28.7086C9.04908 29.0359 9.20496 29.5046 9.13874 29.9626C9.0489 30.5846 9.03066 31.0751 9.18582 31.6396L7.73601 33.0893C6.67109 34.1542 6.67109 35.887 7.73601 36.9518C8.11372 37.3295 8.5756 37.5725 9.06166 37.6823C8.63921 38.6773 8.83238 39.8737 9.6425 40.6837C10.1584 41.1996 10.8442 41.4837 11.5737 41.4837C11.8176 41.4837 12.0565 41.4513 12.286 41.3896C12.3699 41.9468 12.6255 42.4829 13.0536 42.9111C13.586 43.4435 14.2854 43.7098 14.9849 43.7098C15.2007 43.7098 15.4164 43.6842 15.6273 43.6336C15.7037 44.2075 15.9614 44.7617 16.4014 45.2017C16.9339 45.7341 17.6333 46.0004 18.3326 46.0004C19.0321 46.0004 19.7315 45.7342 20.2639 45.2017L21.0098 44.4558L21.0686 44.5146C21.6057 45.0518 22.3199 45.3476 23.0795 45.3476C23.8394 45.3477 24.5536 45.0518 25.0907 44.5147ZM34.4353 13.487L44.3461 23.3978L40.585 27.1588L30.6742 17.2482L34.4353 13.487ZM25.7561 21.2985L28.0159 21.8073C29.0087 22.0309 30.031 21.7348 30.7507 21.0151L31.5526 20.2131L37.6198 26.2803L36.235 27.6651C35.5805 28.3194 35.2686 29.2571 35.4009 30.1733C35.5144 30.9594 35.3201 31.7597 34.8765 32.4062L26.115 23.6447C25.8497 23.3795 25.4276 23.3555 25.134 23.5891L22.6434 25.5712C22.3912 25.7719 22.2985 26.1131 22.4145 26.4138L22.6127 26.9278C23.0516 28.0662 22.5642 29.3452 21.4791 29.9028L21.3123 29.9886L19.2664 25.9523C19.0495 25.5244 19.1317 25.0088 19.471 24.6695L21.654 22.4866C22.7335 21.4075 24.2669 20.9633 25.7561 21.2985ZM5.41517 27.1588L1.65404 23.3978L11.5647 13.4871L15.3264 17.2476L5.41517 27.1588ZM8.77937 34.1327L10.7492 32.1629C10.9864 31.9257 11.3017 31.795 11.6371 31.795C11.9725 31.795 12.2879 31.9257 12.525 32.1629C13.0147 32.6525 13.0147 33.4492 12.525 33.9388L10.5552 35.9086C10.0655 36.3984 9.26884 36.3983 8.77928 35.9086C8.28972 35.419 8.28972 34.6223 8.77937 34.1327ZM10.6859 39.6406C10.4487 39.4034 10.318 39.088 10.318 38.7526C10.318 38.4172 10.4487 38.1018 10.6859 37.8646L14.097 34.4534C14.3419 34.2086 14.6634 34.0862 14.9851 34.0862C15.3066 34.0862 15.6282 34.2086 15.873 34.4534C16.3626 34.9431 16.3626 35.7398 15.873 36.2294L12.4618 39.6406C12.2246 39.8777 11.9093 40.0084 11.5739 40.0084C11.2385 40.0084 10.923 39.8777 10.6859 39.6406ZM14.097 41.8679C13.8599 41.6307 13.7292 41.3153 13.7292 40.9799C13.7292 40.6446 13.8599 40.3291 14.097 40.092L16.0352 38.1538C16.2801 37.909 16.6016 37.7866 16.9233 37.7866C17.2448 37.7866 17.5664 37.909 17.8112 38.1538C18.3008 38.6435 18.3008 39.4402 17.8112 39.9298L17.2836 40.4573C17.2833 40.4577 15.873 41.868 15.873 41.868C15.6358 42.1052 15.3204 42.2358 14.9851 42.2358C14.6496 42.2357 14.3342 42.1051 14.097 41.8679ZM20.1018 43.2775L19.2208 44.1585C18.7311 44.6483 17.9344 44.6482 17.4449 44.1585C16.9554 43.6691 16.9553 42.8728 17.4444 42.3831L18.3265 41.5011C18.5713 41.2567 18.8926 41.1344 19.2139 41.1344C19.5356 41.1344 19.8571 41.2568 20.1019 41.5016C20.5915 41.9911 20.5915 42.7879 20.1018 43.2775ZM21.8258 43.1852C22.1085 42.2513 21.8819 41.195 21.1451 40.4582C20.705 40.0182 20.1509 39.7605 19.577 39.6842C19.792 38.7898 19.5513 37.8072 18.8545 37.1105C18.4726 36.7285 18.0045 36.4843 17.5124 36.3764C17.9153 35.3886 17.7168 34.2108 16.9162 33.4103C16.2195 32.7135 15.2369 32.4729 14.3425 32.6879C14.2661 32.114 14.0085 31.5597 13.5684 31.1197C13.0525 30.6038 12.3667 30.3197 11.6372 30.3197C11.2587 30.3197 10.8922 30.3969 10.5549 30.5425C10.5642 30.432 10.5793 30.3112 10.5992 30.1736C10.7314 29.2575 10.4196 28.3199 9.76522 27.6655L8.38028 26.2805L14.4475 20.2134L15.2722 21.0381C15.9729 21.7387 16.9713 22.0401 17.9424 21.844L19.1816 21.594C19.6277 21.504 20.0784 21.4857 20.5221 21.5327L18.428 23.6268C17.6363 24.4185 17.4446 25.6213 17.9507 26.62L19.9966 30.6562C20.1755 31.0091 20.4813 31.2706 20.8576 31.3926C21.2341 31.5147 21.6351 31.4822 21.987 31.3014L22.1538 31.2157C23.9112 30.3126 24.7004 28.2413 23.9896 26.3976L23.9863 26.3889L25.5377 25.1541L35.1132 34.7295C35.6468 35.2631 35.6468 36.1314 35.1132 36.6649C34.6516 37.1266 33.9344 37.1818 33.3908 36.8326C32.9796 36.5684 31.5546 35.0492 31.1817 34.6786C30.4855 33.9866 29.7892 33.2946 29.093 32.6026C29.0552 32.565 29.0173 32.5274 28.9794 32.4897C28.6905 32.2025 28.2234 32.2039 27.9361 32.4929C27.6489 32.782 27.6503 33.249 27.9394 33.5362L31.7347 37.3084C31.9932 37.5669 32.1356 37.9105 32.1356 38.2762C32.1356 38.6667 31.9201 39.0268 31.6849 39.3238C31.2195 39.9114 30.2757 39.7203 29.8014 39.246L25.6634 35.0754C25.3765 34.7862 24.9094 34.7845 24.6202 35.0713C24.331 35.3582 24.3292 35.8253 24.616 36.1145L28.1244 39.6506C28.1393 39.6686 28.1549 39.6861 28.1717 39.7029C28.4302 39.9614 28.5726 40.305 28.5726 40.6706C28.5726 41.0362 28.4302 41.3798 28.1717 41.6383C27.6381 42.1719 26.7699 42.1719 26.2363 41.6383L22.5725 37.9746C22.2845 37.6865 21.8173 37.6865 21.5293 37.9746C21.2411 38.2626 21.2411 38.7298 21.5293 39.0179L24.0478 41.5364C24.5814 42.0699 24.5814 42.9382 24.0478 43.4718C23.7893 43.7302 23.4456 43.8726 23.0801 43.8726C22.7145 43.8726 22.3708 43.7302 22.1124 43.4718L21.8258 43.1852Z" fill="#0F62FE"/>
<path d="M23.4796 11.8032V0.737707C23.4796 0.330266 23.1493 0 22.7419 0C22.3344 0 22.0042 0.330266 22.0042 0.737707V11.8032C22.0042 12.2107 22.3344 12.5409 22.7419 12.5409C23.1493 12.5409 23.4796 12.2107 23.4796 11.8032Z" fill="#0F62FE"/>
<path d="M18.7161 13.9843C18.8601 14.1283 19.049 14.2003 19.2377 14.2003C19.4265 14.2003 19.6153 14.1283 19.7594 13.9843C20.0475 13.6962 20.0475 13.229 19.7594 12.941L12.7512 5.93283C12.4631 5.64479 11.996 5.64479 11.7079 5.93283C11.4198 6.22087 11.4198 6.68805 11.7079 6.97609L18.7161 13.9843Z" fill="#0F62FE"/>
<path d="M26.7678 13.9843L33.776 6.97609C34.0641 6.68805 34.0641 6.22087 33.776 5.93283C33.4879 5.64479 33.0207 5.64479 32.7327 5.93283L25.7245 12.941C25.4364 13.229 25.4364 13.6962 25.7245 13.9843C25.8685 14.1283 26.0573 14.2003 26.2462 14.2003C26.4349 14.2003 26.6238 14.1283 26.7678 13.9843Z" fill="#0F62FE"/>
</g>
<defs>
<clipPath id="clip0_118_6694">
<rect width="46" height="46" fill="white"/>
</clipPath>
</defs>
</svg>

<svg xmlns="http://www.w3.org/2000/svg" width="46" height="46" fill="none" viewBox="0 0 46 46"><g fill="#0f62fe" clip-path="url(#a)"><path d="M25.09 44.515c.377-.377.635-.841.756-1.346a2.847 2.847 0 0 0 4.178-2.136c-.016.13.867.107.955.106.627-.006 1.341-.201 1.775-.68.241-.266.398-.596.537-.924.042-.098.394-1.03.308-1.046q.267.051.546.052c.76 0 1.474-.296 2.011-.833a2.847 2.847 0 0 0 0-4.022l-.224-.225a4.64 4.64 0 0 0 .93-3.498c-.067-.459.09-.927.416-1.255l1.385-1.384.879.878c.279.279.649.432 1.043.432s.765-.153 1.043-.432l3.761-3.761a1.477 1.477 0 0 0 0-2.087l-9.91-9.91a1.47 1.47 0 0 0-1.044-.432c-.394 0-.764.153-1.043.432l-3.761 3.761a1.477 1.477 0 0 0 0 2.087l.878.878-.802.802c-.36.36-.87.508-1.367.396l-2.26-.509a5.87 5.87 0 0 0-4.024.522 5.87 5.87 0 0 0-3.166-.233l-1.24.25a1.47 1.47 0 0 1-1.335-.403l-.824-.825.878-.878a1.477 1.477 0 0 0 0-2.087l-3.76-3.761a1.47 1.47 0 0 0-1.044-.432c-.394 0-.765.153-1.043.432L.61 22.354a1.477 1.477 0 0 0 0 2.087l3.76 3.761c.28.279.65.432 1.044.432s.765-.153 1.043-.432l.879-.878 1.385 1.385c.327.327.483.796.417 1.254-.09.622-.108 1.112.047 1.677l-1.45 1.45a2.734 2.734 0 0 0 0 3.862c.378.378.84.62 1.326.73a2.735 2.735 0 0 0 .58 3.002 2.74 2.74 0 0 0 2.643.706c.085.557.34 1.093.769 1.521a2.72 2.72 0 0 0 2.573.723A2.72 2.72 0 0 0 18.332 46c.7 0 1.4-.267 1.932-.8l.746-.745.059.059a2.83 2.83 0 0 0 2.01.833c.76 0 1.475-.296 2.012-.833m9.345-31.028 9.911 9.91-3.761 3.762-9.91-9.91zm-8.679 7.812 2.26.508a2.94 2.94 0 0 0 2.735-.792l.802-.802 6.067 6.067-1.385 1.385a2.96 2.96 0 0 0-.834 2.508 3.16 3.16 0 0 1-.525 2.233l-8.761-8.761a.74.74 0 0 0-.981-.056l-2.49 1.982a.74.74 0 0 0-.23.843l.199.514a2.377 2.377 0 0 1-1.134 2.975l-.167.086-2.046-4.037a1.1 1.1 0 0 1 .205-1.283l2.183-2.182a4.4 4.4 0 0 1 4.102-1.188m-20.34 5.86-3.762-3.761 9.91-9.91 3.762 3.76zm3.363 6.974 1.97-1.97c.237-.237.553-.368.888-.368s.65.13.888.368c.49.49.49 1.286 0 1.776l-1.97 1.97a1.257 1.257 0 0 1-1.776-1.776m1.907 5.508a1.25 1.25 0 0 1-.368-.888c0-.336.13-.651.368-.888l3.411-3.412a1.255 1.255 0 0 1 1.776 0c.49.49.49 1.287 0 1.776l-3.411 3.412a1.25 1.25 0 0 1-.888.367c-.335 0-.651-.13-.888-.367m3.411 2.227a1.25 1.25 0 0 1-.368-.888c0-.335.13-.65.368-.888l1.938-1.938c.245-.245.567-.367.888-.367s.643.122.888.367c.49.49.49 1.286 0 1.776l-.527.527-1.411 1.411a1.25 1.25 0 0 1-.888.368c-.335 0-.65-.13-.888-.368m6.005 1.41-.881.88a1.257 1.257 0 0 1-1.777-1.775l.883-.882a1.25 1.25 0 0 1 1.775.001c.49.49.49 1.286 0 1.776m1.724-.093a2.73 2.73 0 0 0-.68-2.727 2.7 2.7 0 0 0-1.569-.774 2.73 2.73 0 0 0-2.065-3.308 2.732 2.732 0 0 0-3.17-3.688 2.7 2.7 0 0 0-.774-1.568 2.7 2.7 0 0 0-1.93-.8c-.38 0-.746.077-1.083.223q.014-.165.044-.37a2.97 2.97 0 0 0-.834-2.507L8.38 26.28l6.067-6.067.825.825c.7.7 1.7 1.002 2.67.806l1.24-.25a4.4 4.4 0 0 1 1.34-.061l-2.094 2.094a2.58 2.58 0 0 0-.477 2.993l2.046 4.036c.178.353.484.615.86.737.377.122.778.09 1.13-.092l.167-.085a3.85 3.85 0 0 0 1.836-4.818l-.004-.01 1.552-1.234 9.575 9.576a1.37 1.37 0 0 1 0 1.935 1.38 1.38 0 0 1-1.722.168c-.411-.265-1.836-1.784-2.21-2.154l-2.088-2.076-.114-.113a.738.738 0 1 0-1.04 1.046l3.796 3.772c.258.259.4.602.4.968 0 .39-.215.75-.45 1.048-.465.587-1.41.396-1.884-.078l-4.138-4.17a.738.738 0 0 0-1.047 1.038l3.508 3.537q.022.027.048.052c.258.258.4.602.4.968a1.37 1.37 0 0 1-2.336.968l-3.663-3.664a.738.738 0 1 0-1.044 1.043l2.519 2.518a1.37 1.37 0 0 1-.968 2.337 1.36 1.36 0 0 1-.968-.401z"/><path d="M23.48 11.803V.738a.738.738 0 1 0-1.476 0v11.065a.738.738 0 1 0 1.476 0m-4.764 2.181a.736.736 0 0 0 1.043 0 .74.74 0 0 0 0-1.043l-7.008-7.008a.738.738 0 0 0-1.043 1.043zm8.052 0 7.008-7.008a.738.738 0 1 0-1.043-1.043l-7.008 7.008a.738.738 0 1 0 1.043 1.043"/></g><defs><clipPath id="a"><path fill="#fff" d="M0 0h46v46H0z"/></clipPath></defs></svg>
